!!!!SEGMENT: pl-kk--kk-i-513--016_haser-august-ferdinand--miserere-domine-labia-mea.krn
!!!cenid: 17xx:1856
!!!COM: Häser, August Ferdinand
!!!COM-rismID: pe37240
!!!CDT: 1779/10/15-1844/11/01
!!!CNT: German
!!!OPR: Miserere
!!!OTL: Domine labia mea
!!!OMV: 016
!!!PDT:
!!!AGN: Sacred
!!!SMS-siglum: PL-Kk
!!!SMS-shelfmark: Kk.I.513
!!!SMS-shelfwork: 001-016 M
!!!SMS-variant:
!!!SMS-altvar:
!!!NIFC-rismSourceID: 1001137722
!!!NIFC-rismChildID: 1001138552
!!!NIFC-islandoraID: pl-kk:14834
!!!URL-pdf-islandora: https://repozytorium.nifc.pl/islandora/object/pl-kk%3A14834/datastream/PDF/view
!!!URL-scan: https://polish.musicsources.pl/pl/lokalizacje/galeria/rekopisy/6123 @EN{Scan on Polish Music Sources Website} @PL{Skany w portalu Dziedzictwo Muzyki Polskiej w otwartym dostępie}
!!!ONB-nifc:
!!!AIN: 1 alto 1 bass 1 empty 1 soprn 1 tenor
!!!key:
**kern	**kern	**kern	**text	**dynam	**kern	**text	**dynam	**kern	**text	**dynam	**kern	**text	**dynam
*part5	*part5	*part4	*part4	*part4	*part3	*part3	*part3	*part2	*part2	*part2	*part1	*part1	*part1
*staff6	*staff5	*staff4	*staff4	*	*staff3	*staff3	*	*staff2	*staff2	*	*staff1	*staff1	*
*Iempty	*Iorgan	*Ibass	*	*	*Itenor	*	*	*Ialto	*	*	*Isoprn	*	*
*	*I"[Organo]	*I"Basso.	*	*	*I"Tenore.	*	*	*I"Alto	*	*	*I"Soprano.	*	*
*	*I'[org]	*I'B	*	*	*I'T	*	*	*I'A	*	*	*I'S	*	*
*clefF4	*clefG2	*clefF4	*	*	*clefC4	*	*	*clefG2	*	*	*clefG2	*	*
*k[f#c#g#d#]	*k[f#c#g#d#]	*k[f#c#g#d#a#]	*	*	*k[f#c#g#d#a#]	*	*	*k[f#c#g#d#a#]	*	*	*k[f#c#g#d#a#]	*	*
*E:	*E:	*E:	*	*	*E:	*	*	*E:	*	*	*E:	*	*
*M4/4	*M4/4	*M4/4	*	*	*M4/4	*	*	*M4/4	*	*	*M4/4	*	*
*met(c)	*met(c)	*met(c)	*	*	*met(c)	*	*	*met(c)	*	*	*met(c)	*	*
=1	=1	=1	=1	=1	=1	=1	=1	=1	=1	=1	=1	=1	=1
*2\right	*2\right	*2\right	*	*	*2\right	*	*	*	*	*	*2\right	*	*
!LO:TX:t=P:problem=all\right&colon; global	!LO:TX:t=P:problem=all\right&colon; global	!LO:TX:t=P:problem=all\right&colon; global	!	!	!LO:TX:t=P:problem=all\right&colon; global	!	!	!LO:TX:t=P:problem=all\right&colon; global	!	!	!LO:TX:t=P:problem=all\right&colon; global	!	!
!	!LO:TX:t=P:problem=w źródle brak oznaczenia tempa	!	!	!	!	!	!	!	!	!	!LO:TX:t=P:problem=w źródle brak oznaczenia tempa	!	!
!	!LO:TX:t=P:problem=partia w innej tonacji	!LO:SIC:o=H:v:t=po lewej stronie przed numerem	!	!	!	!	!	!LO:SIC:o=H:v:t=po lewej stronie przed numerem	!	!	!LO:SIC:o=H:v:t=po lewej stronie przed numerem	!	!
!	!	!	!	!	!	!	!	!LO:TX:a:Bi:t=No 16.:problem='No 16.' znajduje się przed kluczem i oznaczeniem metrum na pięciolinii	!	!	!LO:TX:a:Bi:t=No. 16.:problem='No. 16.' znajduje się przed kluczem i oznaczeniem metrum na pięciolinii	!	!
!	!	!LO:TX:a:Bi:t=No 16.:problem='No 16.' znajduje się przed kluczem i oznaczeniem metrum na pięciolinii	!	!	!LO:TX:a:Bi:t=No 16:problem='No 16' znajduje się przed kluczem i oznaczeniem metrum na pięciolinii	!	!	!	!	!	!	!	!
!	!LO:TX:a:t=E dur:rj:problem=dopisane ołówkiem	!	!	!	!	!	!	!	!	!	!	!	!
!	!	!LO:TX:b:Bi:t=Piu Moſsa:rj	!	!	!LO:TX:a:Bi:t=Piu Moſso.:rj	!	!	!LO:TX:a:Bi:t=Piu Moſso:rj	!	!	!	!	!
!	!	!	!	!LO:DY:a:rj	!	!	!LO:DY:b:rj	!	!	!LO:DY:b:rj	!	!	!LO:DY:a:rj
[>1B [>1BB	4.b 4.f# 4.d#/	4.B\	Do-	ff	4.d#\	Do-	ff	4.f#/	Do-	ff	4.b/	Do-	ff
.	8f# 8d#/	8BB/	-mi-	.	8d#\	-mi-	.	8f#/	-mi-	.	8f#/	-mi-	.
.	2f# 2d#/	2BB/	-ne	.	2d#\	-ne	.	2f#/	-ne	.	2f#/	-ne	.
=2	=2	=2	=2	=2	=2	=2	=2	=2	=2	=2	=2	=2	=2
*	*	*	*ij	*	*	*ij	*	*	*	*	*	*ij	*
1B] 1BB]	4.dd# 4.f#/	4.B\	Do-	.	4.B\	Do-	.	4.f#/	Do-	.	4.dd#\	Do-	.
.	8b 8f# 8d#/	8BB/	-mi-	.	8d#\	-mi-	.	8f#/	-mi-	.	8b\	-mi-	.
.	2b 2f# 2d#/	2BB/	-ne	.	2d#\	-ne	.	2f#/	-ne	.	2b\	-ne	.
*	*	*	*Xij	*	*	*Xij	*	*	*	*	*	*Xij	*
=3	=3	=3	=3	=3	=3	=3	=3	=3	=3	=3	=3	=3	=3
!	!	!LO:TX:a:Bi:t=1	!	!	!	!	!LO:DY:a:rj	!	!	!	!	!	!LO:DY:a:rj
1d#	2.b 2.f#/	1r	.	.	4.d#\	la-	pp	4..f#/	la-	.	4b\	la-	p
.	.	.	.	.	.	.	.	.	.	.	8b\	-bi-	.
.	.	.	.	.	8d#\	-bi-	.	.	.	.	8b\	-a	.
.	.	.	.	.	.	.	.	16f#/	-bi-	.	.	.	.
.	.	.	.	.	2d#\	-a	.	2f#/	-a	.	4b\	me-	.
.	8cc#/L	.	.	.	.	.	.	.	.	.	8cc#\	-a	.
.	8b/J	.	.	.	.	.	.	.	.	.	8b\	a-	.
=4	=4	=4	=4	=4	=4	=4	=4	=4	=4	=4	=4	=4	=4
*	*^	*	*	*	*	*	*	*	*	*	*	*	*
2.c# 2.F#\	4.b/	2.e\	4.F#\	la-	.	4c#\	la-	.	4e/	la-	.	4.b/	-pe-	.
.	.	.	.	.	.	8c#\	-bi-	.	8e/	-bi-	.	.	.	.
.	8a#X/	.	8F#\	-bi-	.	8c#\	-a	.	8e/	-a	.	8a#X/	-ri-	.
.	2a#/	.	2F#\	-a	.	4c#\	me-	.	4e/	me-	.	2a#/	-es.	.
4F#\	.	8f#\L	.	.	.	8F#/	-a	.	8f#/	-a	.	.	.	.
.	.	8e\J	.	.	.	8F#/	a-	.	8e/	a-	.	.	.	.
!	!	!	!	!	!	!LO:LB:g=original	!	!	!	!	!	!LO:LB:g=original	!	!
=5	=5	=5	=5	=5	=5	=5	=5	=5	=5	=5	=5	=5	=5	=5
2.F# 2.BB\	2an/	4.e\	2BB/	me-	.	4.F#/	-pe-	.	4.e/	-pe-	.	4an/	la-	.
.	.	.	.	.	.	.	.	.	.	.	.	8a/	-bi-	.
.	.	8d#\	.	.	.	8F#/	-ri-	.	8d#/	-ri-	.	8a/	-a	.
!	!LO:SIC:s=4a#:v	!	!	!	!	!	!	!	!	!	!	!	!	!
.	4a/	4d#/	4BB/	-a	.	4F#/	-es	.	4d#/	-es	.	4a/	me-	.
4B 4D#\	8b/L	4f#\	4D#/	a-	.	4B\	a-	.	4f#/	a-	.	8b/	-a,	.
!	!LO:SIC:s=8A#:V	!	!	!	!	!	!	!	!	!	!	!	!	!
.	8a/J	.	.	.	.	.	.	.	.	.	.	8a/	a-	.
!LO:LB:g=original	!LO:LB:g=original	!	!	!	!	!	!	!	!LO:LB:g=original	!	!	!	!	!
=6	=6	=6	=6	=6	=6	=6	=6	=6	=6	=6	=6	=6	=6	=6
1B 1E	1g#	4f#\	4.E\	-pe-	.	4.B\	-pe-	.	(<4f#/	-pe-	.	4.g#/	-pe-	.
.	.	8e\L	.	.	.	.	.	.	8e/)	.	.	.	.	.
.	.	8d#\J	8E\	-ri-	.	8B\	-ri-	.	8d#/	-ri-	.	8g#/	-ri-	.
.	.	2e\	2E\	-es	.	2B\	-es	.	2e/	-es	.	2g#/	-es	.
=7	=7	=7	=7	=7	=7	=7	=7	=7	=7	=7	=7	=7	=7	=7
4r	4r	4ryy	4r	.	.	4r	.	.	4r	.	.	4r	.	.
!	!	!	!	!	!	!	!	!LO:DY:b:rj	!	!	!LO:DY:a:rj	!	!	!LO:DY:a:rj
2c# 2C#\	2ee/	2.g#\	2C#/	et	.	2c#\	et	ff	2g#/	et	f	2ee\	et	ff
!LO:SIC:n=3:s=4D#:v	!	!	!	!	!	!	!	!	!	!	!	!	!	!
4B#X 4G# 4E\	4dd#/	.	4G#\	os	.	4B#X\	os	.	4g#/	os	.	4dd#\	os	.
!	!	!	!	!LO:LB:g=original	!	!	!	!	!	!	!	!	!	!
=8	=8	=8	=8	=8	=8	=8	=8	=8	=8	=8	=8	=8	=8	=8
!LO:SIC:n=2:s=1A#:v	!	!	!	!	!	!	!	!	!	!	!	!	!	!
1c# 1A	1cc#	4g#\	1A#	me-	.	1c#	me-	.	4g#/	me-	.	1cc#	me-	.
.	.	8f#\L	.	.	.	.	.	.	8f#/L	.	.	.	.	.
.	.	8e#X\J	.	.	.	.	.	.	8e#X/J	.	.	.	.	.
.	.	4f#\	.	.	.	.	.	.	4f#/	.	.	.	.	.
.	.	4f##X\	.	.	.	.	.	.	4f##X/	.	.	.	.	.
*	*v	*v	*	*	*	*	*	*	*	*	*	*	*	*
=9	=9	=9	=9	=9	=9	=9	=9	=9	=9	=9	=9	=9	=9
4d# 4G#\	4b#X 4g#/	4G#\	-um	.	4e\	-um	.	4g#/	-um	.	4b#X\	-um	.
2.B#X\	2.dd# 2.g#/	4r	.	.	4B#X\	an-	.	4g#/	an-	.	4dd#X\	an-	.
.	.	2r	.	.	4B#\	-nun-	.	4g#/	-nun-	.	4dd#\	-nun-	.
.	.	.	.	.	4B#\	-ci-	.	[>4g#/	-ci-	.	4dd#\	-di-	.
=10	=10	=10	=10	=10	=10	=10	=10	=10	=10	=10	=10	=10	=10
*^	*	*	*	*	*	*	*	*	*	*	*	*	*
1c#	4r	1ee 1g#	4r	.	.	[>1c#	-a-	.	2g#/]	.	.	[>1ee	-a-	.
.	2.C#\	.	4C#/	an-	.	.	.	.	.	.	.	.	.	.
.	.	.	4C#/	-nun-	.	.	.	.	[<2g#/	-a-	.	.	.	.
.	.	.	4C#/	-ci-	.	.	.	.	.	.	.	.	.	.
!LO:LB:g=original	!LO:LB:g=original	!	!	!	!	!	!	!	!	!	!	!LO:LB:g=original	!	!
*v	*v	*	*	*	*	*	*	*	*	*	*	*	*	*
=11	=11	=11	=11	=11	=11	=11	=11	=11	=11	=11	=11	=11	=11
*	*^	*	*	*	*	*	*	*	*	*	*	*	*
!LO:SIC:n=2:s=4A#:v	!	!	!	!	!	!	!	!	!	!	!	!	!	!
4c# 4A\	4ee/	4d#\	4AA#/	-a-	.	4c#\]	.	.	4g#/]	.	.	4ee\]	.	.
!LO:SIC:n=1:s=4A#:v	!	!	!	!	!	!	!	!	!	!	!	!	!	!
!LO:SIC:n=2:s=4AA#:v	!	!	!	!	!	!	!	!	!	!	!	!	!	!
4A 4AA\	8dd#/L	4e\	4AA#/	-bit	.	4A#\	-bit	>	4e/	-bit	.	8dd#X\L	-bit	.
.	8cc#/J	.	.	.	.	.	.	.	.	.	.	8cc#\J	.	.
!LO:SIC:s=4AA#:v	!	!	!	!	!	!	!	!	!	!	!	!	!	!
4AA\	8b/L	4f# 4c#\	4AA#/	lau-	.	4c#\	lau-	.	4f#/	lau-	.	8b/L	lau-	.
.	8a/J	.	.	.	.	.	.	.	.	.	.	8a#/J	.	.
!LO:SIC:n=1:s=4A#:v	!	!	!	!	!	!	!	!	!	!	!	!	!	!
!LO:SIC:n=2:s=4AA#:v	!	!	!	!	!	!	!	!	!	!	!	!	!	!
4A 4AA\	8g#/L	4c#\	4AA#/	-dem	.	4A#\	-dem	.	4c#/	-dem	.	8g#X/L	-dem	.
.	8f#/J	.	.	.	.	.	.	.	.	.	.	8f#/J	.	.
!	!	!	!	!	!	!LO:LB:g=original	!	!	!LO:LB:g=original	!	!	!	!	!
*	*v	*v	*	*	*	*	*	*	*	*	*	*	*	*
=12	=12	=12	=12	=12	=12	=12	=12	=12	=12	=12	=12	=12	=12
*^	*	*	*	*	*	*	*	*	*	*	*	*	*
2G#/	1BB	2e 2B/	1BB	tu-	.	2G#/	tu-	.	1B	tu-	.	2e/	tu-	.
2F#/	.	2d#/	.	.	.	2F#/	.	.	.	.	.	2d#/	.	.
*v	*v	*	*	*	*	*	*	*	*	*	*	*	*	*
=13	=13	=13	=13	=13	=13	=13	=13	=13	=13	=13	=13	=13	=13
4G# 4BB#X\	4g# 4d#/	4BB#X/	-am	.	4G#/	-am	.	4d#/	-am	.	4g#X/	-am	.
!	!	!	!	!	!	!	!LO:DY:a:rj	!	!	!LO:DY:b:rj	!	!	!
2.B#X\	2.dd# 2.g#/	4r	.	.	4B#X\	an-	f	4g#/	an-	ff	4dd#X\	an-	.
.	.	2r	.	.	4B#\	-nun-	.	4g#/	-nun-	.	4dd#\	-nun-	.
.	.	.	.	.	4B#\	-ci-	.	4g#/	-ci-	.	4dd#\	-di-	.
=14	=14	=14	=14	=14	=14	=14	=14	=14	=14	=14	=14	=14	=14
*^	*^	*	*	*	*	*	*	*	*	*	*	*	*
2.c#/	4r	2.ee/	2.g#\	4r	.	.	2.c#\	-a-	.	2.g#/	-a-	.	2.ee\	-a-	.
!	!	!	!	!	!	!LO:DY:a:rj	!	!	!	!	!	!	!	!	!
.	2C#\	.	.	4C#/	an-	f	.	.	.	.	.	.	.	.	.
.	.	.	.	4c#\	-nun-	.	.	.	.	.	.	.	.	.	.
4d#\	4G#\	4b#X/	4g#/	4G#\	-ci-	.	4e\	-bit	.	4e/	-bit	.	4b#X/	-bit	.
*v	*v	*	*	*	*	*	*	*	*	*	*	*	*	*	*
*	*v	*v	*	*	*	*	*	*	*	*	*	*	*	*
=15	=15	=15	=15	=15	=15	=15	=15	=15	=15	=15	=15	=15	=15
!LO:SIC:s=4A#:v	!	!	!	!	!	!	!	!	!	!	!	!	!
4A\	4cc# 4e\	4A#\	-a-	.	(2A#/	lau-	.	4e/	lau-	.	(>4cc#\	lau-	.
!LO:SIC:n=1:s=4A#:v	!LO:SIC:n=1:s=4aa#:v	!	!	!	!	!	!	!	!	!	!	!	!
4A 4F#\	4aa 4cc#\	4F#\	-bit	.	.	.	.	(>4cc#\	.	.	4aa#\)	.	.
4B 4G#\	4gg# 4b\	4G#\	lau-	.	4B\)	.	.	4b\)	.	.	(>4gg#\	-dem	.
!LO:SIC:n=2:s=4A#:v	!LO:SIC:s=4a#:v	!	!	!	!	!	!	!	!	!	!	!	!
4c# 4A\	4ff# 4a\	4A#\	-dem	.	4c#\	-dem	.	4a#\	-dem	.	4ff#\)	.	.
=16	=16	=16	=16	=16	=16	=16	=16	=16	=16	=16	=16	=16	=16
*	*^	*	*	*	*	*	*	*	*	*	*	*	*
!	!	!	!	!	!LO:DY:a:rj	!	!	!LO:DY:a:rj	!	!	!	!	!	!
[<2B 2BB/	2ee/	2g#\	2B\	tu-	ff	1B	tu-	ff	(<2g#/	tu-	.	(2ee\	tu-	.
2B] 2BB/	2dd#/	2f#\	2BB/	.	.	.	.	.	2f#/)	.	.	2dd#\)	.	.
=17	=17	=17	=17	=17	=17	=17	=17	=17	=17	=17	=17	=17	=17	=17
2B 2E\	2ee/	2g#\	2E\	-am.	.	2B\	-am	.	2g#/	-am.	.	2ee\	-am.	.
2r	2r	2ryy	2r	.	.	2r	.	.	2r	.	.	2r	.	.
*	*v	*v	*	*	*	*	*	*	*	*	*	*	*	*
==	==	==	==	==	==	==	==	==	==	==	==	==	==
*-	*-	*-	*-	*-	*-	*-	*-	*-	*-	*-	*-	*-	*-
!!!system-decoration: [(s1,s2,s3,s4)]{(s5,s6)}
!!!RDF**kern: > = above
!!!RDF**kern: < = below
!!!RDF**dynam: > = "dim", fontstyle="bold-italic"
!!!EED: Wojciech Jakubiak-Danek
!!!EEV: 2021-01-03
!!!ENC: Tomasz Grochalski
!!!END: 2021-01-01
!!!YEC: Copyright 2022 Narodowy Instytut Fryderyka Chopina (https://polishscores.org)
!!!YEM: License CC-BY-4.0 (https://creativecommons.org/licenses/by/4.0)
